svg/behance-circle.svg

<svg xmlns="http://www.w3.org/2000/svg" viewBox="0 0 64 64" enable-background="new 0 0 64 64"><style type="text/css">.st0{fill:#343434;}</style><path class="st0" d="M32 0c-17.7 0-32 14.3-32 32s14.3 32 32 32 32-14.3 32-32-14.3-32-32-32zm8 18h12v4h-12v-4zm-7 20.1c0 9.2-9.5 8.9-9.5 8.9h-15.5v-30h15.5c4.7 0 8.4 2.6 8.4 8s-4.6 5.7-4.6 5.7c6.1 0 5.7 7.4 5.7 7.4zm12.7 4.1c5 0 4.8-3.2 4.8-3.2h5.3c0 8.6-10.2 8-10.2 8-12.4 0-11.6-11.5-11.6-11.5s0-11.5 11.5-11.5c12.1 0 10.4 13 10.4 13h-15.5c0 5.6 5.3 5.2 5.3 5.2zM23.5 33.7h-8.7v8h8.3c1.2 0 3.5-.4 3.5-3.9.1-4.2-3.1-4.1-3.1-4.1zM25.6 25.5c0-3.1-2.1-3.1-2.1-3.1h-8.7v6.6h8.2c1.4 0 2.6-.4 2.6-3.5zM45.6 28.4c-4.6 0-5.3 4.6-5.3 4.6h9.8c.1 0 .1-4.6-4.5-4.6z"/></svg>

<svg xmlns="http://www.w3.org/2000/svg" viewBox="0 0 64 64"><path d="M32 0C14.3 0 0 14.3 0 32s14.3 32 32 32 32-14.3 32-32S49.7 0 32 0zm8 18h12v4H40v-4zm-7 20.1c0 9.2-9.5 8.9-9.5 8.9H8V17h15.5c4.7 0 8.4 2.6 8.4 8s-4.6 5.7-4.6 5.7c6.1 0 5.7 7.4 5.7 7.4zm12.7 4.1c5 0 4.8-3.2 4.8-3.2h5.3c0 8.6-10.2 8-10.2 8C33.2 47 34 35.5 34 35.5S34 24 45.5 24c12.1 0 10.4 13 10.4 13H40.4c0 5.6 5.3 5.2 5.3 5.2zm-22.2-8.5h-8.7v8h8.3c1.2 0 3.5-.4 3.5-3.9.1-4.2-3.1-4.1-3.1-4.1zm2.1-8.2c0-3.1-2.1-3.1-2.1-3.1h-8.7V29H23c1.4 0 2.6-.4 2.6-3.5zm20 2.9c-4.6 0-5.3 4.6-5.3 4.6h9.8c.1 0 .1-4.6-4.5-4.6z" fill="#343434"/></svg>
